G20 ;SETS UNITS TO INCHES
G90 ;SETS POS TO ABSOLUTE
G17 ;SELECTS THE X, Y PLAINE
G28 ;RESET MACHINE
M03 S1000 ;SPINDLE SPEED 1000
G04 P1.0 ;1 -SECOND PAUSE

G0 X0 Y0 
G1 Z-1 F10.0 ;LINERAR MORE TO Z-1 WITH A FEED RATE OF 10 in/min

G1 X10.0 Y0.0 F30.0 ;CHANGED FEEDRATE TO 30 in/min
G0 X20.0 Y10.0
G0 X30.0 Y30.0
G0 X30.0 Y40.0

G1 X25.0 Y40.0
G0 X25.0 Y30.0
G0 X10.0 Y30.0
G0 X0.0 Y40.0

G0 Z5 ;RAPID MOVE UP 5in
G28 ;SET HOME
M05 ;OFF
M30
